wp-content/themes/target/img/bg/bg-footer.svg

<svg width="467" height="296" viewBox="0 0 467 296" fill="none" xmlns="http://www.w3.org/2000/svg">
<g opacity="0.3">
<path fill-rule="evenodd" clip-rule="evenodd" d="M406.838 92.7943C412.067 101.523 409.264 112.9 400.578 118.205L283.389 189.788L241.567 345.873C238.921 355.745 228.843 361.622 219.056 358.999C209.27 356.377 203.48 346.248 206.125 336.376L248.334 178.853C250.559 170.547 255.883 163.416 263.191 158.952L381.644 86.5968C390.33 81.2911 401.61 84.0659 406.838 92.7943ZM454.115 126.166C459.344 134.894 456.541 146.271 447.855 151.577L324.34 227.024C315.654 232.33 304.374 229.555 299.146 220.827C293.917 212.098 296.72 200.721 305.406 195.416L428.922 119.968C437.608 114.663 448.887 117.437 454.115 126.166Z" fill="#13C077"/>
<path fill-rule="evenodd" clip-rule="evenodd" d="M137.033 20.4949C128.141 25.4397 124.88 36.6938 129.75 45.6316L195.446 166.218L153.624 322.303C150.978 332.175 156.768 342.304 166.555 344.926C176.341 347.549 186.42 341.672 189.065 331.799L231.273 174.276C233.499 165.971 232.454 157.133 228.357 149.613L161.951 27.7246C157.081 18.7868 145.925 15.55 137.033 20.4949ZM79.4044 25.7568C70.5123 30.7017 67.2513 41.9558 72.1207 50.8936L141.364 177.991C146.234 186.929 157.39 190.165 166.282 185.22C175.174 180.276 178.435 169.021 173.565 160.084L104.322 32.9866C99.4523 24.0488 88.2965 20.812 79.4044 25.7568Z" fill="#13C077"/>
</g>
</svg>

<svg width="467" height="296" viewBox="0 0 467 296" fill="none" xmlns="http://www.w3.org/2000/svg"><path d="M406.838 92.794c5.229 8.729 2.426 20.106-6.26 25.411l-117.189 71.583-41.822 156.085c-2.646 9.872-12.724 15.749-22.511 13.126-9.786-2.622-15.576-12.751-12.931-22.623l42.209-157.523a33.462 33.462 0 0114.857-19.901l118.453-72.355c8.686-5.306 19.966-2.531 25.194 6.197zm47.277 33.372c5.229 8.728 2.426 20.105-6.26 25.411L324.34 227.024c-8.686 5.306-19.966 2.531-25.194-6.197-5.229-8.729-2.426-20.106 6.26-25.411l123.516-75.448c8.686-5.305 19.965-2.531 25.193 6.198zM137.033 20.495c-8.892 4.945-12.153 16.199-7.283 25.137l65.696 120.586-41.822 156.085c-2.646 9.872 3.144 20.001 12.931 22.623 9.786 2.623 19.865-3.254 22.51-13.127l42.208-157.523a33.462 33.462 0 00-2.916-24.663L161.951 27.725c-4.87-8.938-16.026-12.175-24.918-7.23zm-57.629 5.262c-8.892 4.945-12.153 16.199-7.283 25.137l69.243 127.097c4.87 8.938 16.026 12.174 24.918 7.229 8.892-4.944 12.153-16.199 7.283-25.136L104.322 32.987c-4.87-8.938-16.026-12.175-24.918-7.23z" opacity=".3" fill-rule="evenodd" clip-rule="evenodd" fill="#13C077"/></svg>
